X: 754
T: Air Moving
R: waltz
M: 3/4
K: Fmajor
e|:f3 e d2|c3 B A2|c3 B AB|G6-|
G4 e2|f3 e d2|c3 B A2|c6-|c4 e2|
f3 e d2|c3 B A2|c3 B AB|G6-|
G4 (3cBG|A3G F2|E3 D C2|B,6-|1 B,4 e2:|B,4 A2||
|:"Bflat" B4 F2|B4 c2|"Am7" A3 G F2|1 "C" E2 F2 A2|
"Bflat" B4 F2|B4 c2|"Dm" A3 G FA|"C"G4 A2:|
[2 "C" F2 A2 e2|"Bflat" f3 e d2|"Dm"c3 B AB|"C" G6-|G4 e2||

